X:117
T:Reels simple chords 324
M:3/4
L:1/8
K:G
B,A, [G,G,B,D]B, DG | BA GB [dG,B,D]B | GA BA GB | [cC,E,G,]d cB AG | FG [AD,F,A,]G FE |
DC B,A, [G,G,B,D]B, | DG BA GB | [dG,B,D]B GA BA | GB [cC,E,G,]d cB |
AG FE [DD,F,A,]F | AF G2 B,A, | [G,G,B,D]B, DG BA | GB [dG,B,D]B GA |
BA GB [cC,E,G,]d | cB AG FG | [AD,F,A,]G FE DC | B,A, [G,G,B,D]B, DG |
BA GB [dG,B,D]B | GA BA GB | [cC,E,G,]d cB AG | FE [DD,F,A,]F AF |
G2 Bc [dG,B,D]c | Bd g2 gB | [cC,E,G,]B A2 a3 |g [f2D,2F,2A,2] fg |
fe df [eA,^CE]d | ^ce d2 B=c | [dG,B,D]c Bd g2 | gB [cC,E,G,]B A2 |
a2>g2 [fD,F,A,]e | dB cA FD | [G2G,2B,2D2] B2 G2 | Bc [dG,B,D]c Bd |
g2 gB [cC,E,G,]B | A2 a2>g2 | [f2D,2F,2A,2] fg fe | df [eA,^CE]d ce |
d2 Bc [dG,B,D]c | Bd g2 gB | [cC,E,G,]B A2 a3 |g [fD,F,A,]e dB |
cA FD [G2G,2B,2D2] | B2 G2 |


